X:923
T:Midnight on the water
R:Waltz
O:USA
S:Richard Darsie's web page
Z:Transcription, chords:Mike Long
M:3/4
L:1/8
K:D
DE|\
"D"F2 A2 A2|F2 A2 A2|"D"F2 A2 "G"AB|"D"A2 F2 DE|\
"D"F2 d2 "G"B2|"D"A2 FE DE|"D"F2 F2 "A"(3(EFE)|"D"D4:|
(3(ABc)|\
"D"d3 e dc|dc BA Bc|d3 B AF|D4 d2|\
"Em"e3 d ef|e2 d2 e2|"Bm"f3 a fe|dc BA Bc|
"G"d3 e dc|d2 c2 B2|"D"A3 B AF|"G"D3 A, DE|\
"D"F2 d2 "G"B2|"D"A2 FE DE|"D"F2 F2 "A"(3(EFE)|"D"D4|]
